X: 35514
T: Ruidhle Mo Nighean Donn
R: reel
M: 4/4
K: Gmajor
|:g2 fg ed B2|BdBA GABd|g2 fg ed B2|BABd e2 e2:|
dG (3GGG dBAB|BdBA GABd|dG (3GGG dBAB|BABd e2e2|
dG (3GGG dBAB|BdBA GABd|g2 fg ed B2|BABd e2 e2||

